X: 1
T:A and D
% Nottingham Music Database
S:Aon Muc-plen 193, via Phil Rowe
M:6/8
K:D
"C"ecd g2e|"G"f2g e2e|"A"_cef "Gm"acc|"G"ded dBA|
"D"Add AAd|"G"efg "D7"d2c|"G7"dcB "D7/f+"ced|"A"e3 -e2:||


